X:75
T:bouree 32a & b
C:Michael Praetorius
L:1/8
M:4/4
O:Germany
Z:Andy Hornby
%%TUNEURL: http://www.leeds.ac.uk/music/Info/RRTuneBk/gettune/00000d92.html
%%ID:00000d92
K:G
Bc|d2d2d3c|B2G2G2cd|e2c2c2Bc|d2B2B2G2|A2G2A2GA|B2G2G2:|
|FG|A2A2A3G|F2D4A2|F2D4d2|B2G4cd|e2c2cd e2|
d2B4FG|A2A2ABAG|F2D4A2|F2D4d2|B2G4cB|A2G2F3G|G6|
K:F
|:B2|G4G2AB|c2F2F2BA|G^FGA BABc|1 d2D2D2:|2 d6|
|:d2|B6d2|B6d2|Bc d2Bc d2|c2A2A4|AB c2AB c2|1 \
B2G2G2BA|G2^F2 GABG|A2D2D2:|2 B2G2GABc|d2cB AG A2|G6|]
